pim-2023/src/assets/musicIcon.svg

<svg width="120" height="92" viewBox="0 0 120 92" fill="none" xmlns="http://www.w3.org/2000/svg">
    <path
        d="M119.889 0.0802928L110.595 71.7014C109.905 77.02 107.137 81.8475 102.901 85.1219C98.6643 88.3964 93.3061 89.8494 88.005 89.1615C82.7039 88.4736 77.894 85.7011 74.6336 81.4538C71.3732 77.2066 69.9292 71.8325 70.6194 66.5139C71.3096 61.1953 74.0773 56.3678 78.3138 53.0933C82.5503 49.8189 87.9085 48.3658 93.2096 49.0537C96.2935 49.4539 99.1168 50.5194 101.523 52.1134L105.888 18.4802L47.1954 23.2737L40.5782 74.2679C39.888 79.5866 37.1202 84.4141 32.8837 87.6885C28.6472 90.9629 23.2891 92.416 17.9879 91.7281C12.6868 91.0402 7.87696 88.2677 4.61652 84.0204C1.35608 79.7731 -0.0878835 74.3991 0.602289 69.0805C1.29246 63.7618 4.06023 58.9343 8.29672 55.6599C12.5332 52.3855 17.8914 50.9324 23.1925 51.6203C26.2764 52.0205 29.0997 53.086 31.506 54.68L37.7069 6.8944L119.889 0.0802928Z"
        fill="#D2D2D2" />
</svg>

<svg width="120" height="92" viewBox="0 0 120 92" fill="none" xmlns="http://www.w3.org/2000/svg"><path d="m119.889.08-9.294 71.621a20.257 20.257 0 0 1-7.694 13.42 20.122 20.122 0 0 1-14.896 4.04 20.122 20.122 0 0 1-13.371-7.707 20.256 20.256 0 0 1-4.015-14.94 20.256 20.256 0 0 1 7.695-13.42 20.122 20.122 0 0 1 14.896-4.04c3.084.4 5.907 1.465 8.313 3.06l4.365-33.634-58.693 4.794-6.617 50.994a20.256 20.256 0 0 1-7.694 13.42 20.122 20.122 0 0 1-14.896 4.04A20.122 20.122 0 0 1 4.617 84.02 20.256 20.256 0 0 1 .602 69.08a20.256 20.256 0 0 1 7.695-13.42 20.122 20.122 0 0 1 14.895-4.04c3.084.4 5.908 1.466 8.314 3.06l6.2-47.786L119.89.08Z" fill="#D2D2D2"/></svg>
